markets/KNC.svg

<svg width="42" height="42" viewBox="0 0 42 42" fill="none" xmlns="http://www.w3.org/2000/svg">
<circle cx="21" cy="21" r="21" fill="#31CB9E"/>
<path fill-rule="evenodd" clip-rule="evenodd" d="M22.7039 5.86806L30.4959 11.5922C30.5766 11.6491 30.6413 11.7258 30.6837 11.8149C30.7261 11.904 30.7447 12.0025 30.7378 12.101C30.731 12.1994 30.6988 12.2944 30.6444 12.3768C30.5901 12.4591 30.5154 12.5261 30.4275 12.5713L18.8831 18.9466L21.7281 6.19593C21.755 6.09794 21.8055 6.00805 21.8754 5.93418C21.9452 5.8603 22.0321 5.80472 22.1285 5.77232C22.2249 5.73993 22.3278 5.73172 22.4282 5.74841C22.5285 5.76511 22.6232 5.8062 22.7039 5.86806ZM30.7376 27.526L19.339 21.0049L30.7376 14.4793C30.8286 14.423 30.9331 14.3921 31.0401 14.3899C31.1472 14.3878 31.2528 14.4144 31.346 14.467C31.4393 14.5196 31.5166 14.5963 31.57 14.689C31.6234 14.7816 31.6508 14.887 31.6495 14.9939V27.0068C31.6502 27.1136 31.6224 27.2186 31.569 27.311C31.5156 27.4035 31.4385 27.4801 31.3457 27.533C31.2528 27.5858 31.1475 27.6131 31.0407 27.6118C30.9338 27.6106 30.8292 27.581 30.7376 27.526ZM22.6947 36.1372L30.4959 30.4131C30.5777 30.3556 30.6434 30.2782 30.6866 30.1882C30.7298 30.0981 30.7492 29.9985 30.7428 29.8988C30.7363 29.7992 30.7044 29.7028 30.65 29.619C30.5956 29.5353 30.5206 29.4668 30.4321 29.4203L18.8831 23.045L21.7281 35.7957C21.7517 35.8947 21.7996 35.9864 21.8675 36.0624C21.9353 36.1384 22.021 36.1964 22.1168 36.2312C22.2127 36.266 22.3156 36.2764 22.4165 36.2616C22.5174 36.2468 22.613 36.2072 22.6947 36.1463V36.1372ZM19.339 6.92454L16.3754 20.7681L19.3025 34.6208C19.3252 34.7355 19.313 34.8543 19.2676 34.9621C19.2222 35.0699 19.1457 35.1617 19.0477 35.2258C18.9498 35.2898 18.835 35.3232 18.7179 35.3217C18.6008 35.3202 18.4869 35.2839 18.3906 35.2173L10.8357 29.4203C10.641 29.2712 10.4839 29.0786 10.377 28.858C10.2701 28.6374 10.2164 28.3949 10.2202 28.1498V13.3955C10.2193 13.1535 10.2743 12.9146 10.3811 12.6974C10.4879 12.4801 10.6434 12.2905 10.8357 12.1432L18.4271 6.328C18.5234 6.26144 18.6373 6.22508 18.7544 6.22357C18.8714 6.22207 18.9863 6.25549 19.0842 6.31956C19.1821 6.38362 19.2587 6.47542 19.3041 6.5832C19.3495 6.69097 19.3616 6.80983 19.339 6.92454Z" fill="white"/>
</svg>

<svg width="42" height="42" viewBox="0 0 42 42" fill="none" xmlns="http://www.w3.org/2000/svg"><circle cx="21" cy="21" r="21" fill="#31CB9E"/><path fill-rule="evenodd" clip-rule="evenodd" d="M22.704 5.868l7.792 5.724a.575.575 0 01-.069.98l-11.544 6.375 2.845-12.751a.62.62 0 01.976-.328zm8.034 21.658l-11.399-6.521 11.399-6.526a.598.598 0 01.912.515v12.013a.6.6 0 01-.912.519zm-8.043 8.611l7.8-5.724a.584.584 0 00-.063-.993l-11.549-6.375 2.845 12.75a.614.614 0 00.967.351v-.009zM19.339 6.925l-2.964 13.843 2.927 13.853a.586.586 0 01-.584.7.588.588 0 01-.327-.104l-7.555-5.797a1.571 1.571 0 01-.616-1.27V13.396a1.569 1.569 0 01.616-1.253l7.591-5.815a.589.589 0 01.912.597z" fill="#fff"/></svg>
